X:1
T:Cuesta, 87.87 D
T:Cuesta, 87.87 D
T:William Fiske Sherwin, 1881
T:Public Domain Courtesy of the Cyber Hymnal™
C:William Fiske Sherwin, 1881
Z:Public Domain
Z:Courtesy of the Cyber Hymnal™
%%score ( 1 2 ) ( 3 4 )
L:1/8
Q:1/4=108
M:4/4
K:Eb
V:1 treble 
V:2 treble 
V:3 bass 
V:4 bass 
V:1
 [EG]2 [EG]2 [EB]2 [EB]2 | [DF]2 [DF]2 [FA]2 [FA]2 | E2 (EF) [EG]2 [Ge]2 | %3
 [Fd]2 [Ec]2 ([DB]2 [FA]2) | [EG]2 [EG]2 [EB]2 [EB]2 | [DF]2 [DF]2 [FA]2 [FA]2 | %6
 E2 (EF) ([EG][Ge]) ([Fd][Ec]) | (BG) (GF) E4 | [DF]2 [DF]2 [FA]2 [FA]2 | E2 (EF) [DG]2 [DG]2 | %10
 [Ge]2 [Fd]2 c2 (cB) | (=AF) (GA) ([DB]2 [F_A]2) | [EG]2 [EG]2 [EB]2 [EB]2 | %13
 [DF]2 [DF]2 [FA]2 [FA]2 | E2 (EF) ([EG][Ge]) ([Fd][Ec]) | (BG) (GF) E4 |] %16
V:2
 x8 | x8 | E2 E2 x4 | x8 | x8 | x8 | E2 E2 x4 | E2 D2 E4 | x8 | E2 C2 x4 | x4 (EG) G2 | F2 E2 x4 | %12
 x8 | x8 | E2 E2 x4 | E2 D2 E4 |] %16
V:3
 [E,B,]2 [E,B,]2 [G,,B,]2 [G,,B,]2 | [B,,B,]2 [B,,B,]2 [F,,C]2 [F,,C]2 | %2
 [A,,C]2 [A,,C]2 [E,B,]2 [E,B,]2 | [F,B,]2 [F,=A,]2 B,4 | [E,B,]2 [E,B,]2 [G,,B,]2 [G,,B,]2 | %5
 [B,,B,]2 [B,,B,]2 [F,,C]2 [F,,C]2 | [A,,C]2 [A,,C]2 [E,B,]2 [A,,A,]2 | (G,B,) [B,,A,]2 [E,G,]4 | %8
 B,2 B,2 [F,C]2 [F,C]2 | [A,C]2 [A,C]2 [G,=B,]2 [G,B,]2 | [C,C]2 [D,=B,]2 [E,C]2 [D,C]2 | %11
 (C=A,) (B,C) B,4 | [E,B,]2 [E,B,]2 [G,B,]2 [G,B,]2 | B,2 B,2 [F,C]2 [F,C]2 | %14
 [A,C]2 [A,C]2 [E,B,]2 [A,,A,]2 | (G,B,) [B,,A,]2 [E,G,]4 |] %16
V:4
 x8 | x8 | x8 | x4 (B,,2 D,2) | x8 | x8 | x8 | B,,2 x6 | B,2 B,2 x4 | x8 | x8 | %11
 F,2 F,2 (B,,2 D,2) | x8 | B,2 B,2 x4 | x8 | B,,2 x6 |] %16

